Project/img/facebook.svg

<svg xmlns="http://www.w3.org/2000/svg" xmlns:xlink="http://www.w3.org/1999/xlink" preserveAspectRatio="xMidYMid" width="7.5" height="16.03" viewBox="0 0 7.5 16.03">
  <defs>
    <style>
      .cls-1 {
        fill: #95e1d3;
        fill-rule: evenodd;
      }
    </style>
  </defs>
  <path d="M7.493,0.015 C7.493,0.937 7.493,2.590 7.493,2.590 C7.493,2.590 5.595,2.401 5.119,3.128 C4.859,3.527 5.014,4.691 4.991,5.527 C5.819,5.527 6.680,5.527 7.509,5.527 C7.296,6.505 7.144,7.167 6.987,8.014 C6.270,8.014 4.977,8.014 4.977,8.014 L4.977,16.016 C4.977,16.016 2.604,16.016 1.488,16.016 C1.489,13.549 1.487,10.671 1.488,8.045 C0.946,8.045 0.545,8.045 0.004,8.045 C0.004,7.122 0.004,6.450 0.004,5.527 C0.529,5.527 0.946,5.527 1.472,5.527 C1.547,3.686 1.575,1.862 2.490,0.933 C3.518,-0.111 4.498,0.015 7.493,0.015 Z" class="cls-1"/>
</svg>

<svg xmlns="http://www.w3.org/2000/svg" width="7.5" height="16.03" preserveAspectRatio="xMidYMid"><defs><style>.cls-1 { fill: #95e1d3; fill-rule: evenodd; }</style></defs><path d="M7.5 0c0 .94 0 2.6 0 2.6s-1.9-.2-2.38.53c-.26.4-.1 1.56-.13 2.4.82 0 1.68 0 2.5 0C7.3 6.5 7.15 7.17 7 8c-.73 0-2.02 0-2.02 0v8.02s-2.38 0-3.5 0c0-2.47 0-5.35 0-7.97-.53 0-.93 0-1.48 0 0-.93 0-1.6 0-2.52.53 0 .95 0 1.47 0 .08-1.84.1-3.67 1.02-4.6C3.5-.1 4.5 0 7.5 0z" class="cls-1"/></svg>
